X:510
T: Tom Barrett's #1
S: B.Breathnach: "Ceol Rince na hEireann" II/121 (gan ainm)
Z: B.Black
L: 1/8
M: 2/4
R: polka
K: Ador
AA/A/ eA|eA e2|dB gB|dB g2|
AA/A/ eA|eA e2|dB gB|A2 A2 :|
ag ef/g/|ag e2|dB gB|dB g2|
ag ef/g/|ag e2|dB gB|A2 A2 :|
